symbols/web/signal_cellular_connected_no_internet_0_bar/materialsymbolsoutlined/signal_cellular_connected_no_internet_0_bar_wght500gradN25fill1_24px.svg

<svg xmlns="http://www.w3.org/2000/svg" height="24" width="24"><path d="M17.85 19.625v2.15H2.1L21.825 2.05v6.5H19.4V7.525l-12.1 12.1Zm1.925-1.7v-7.5h2.05v7.5Zm1.025 3.9q-.45 0-.762-.313-.313-.312-.313-.762t.313-.762q.312-.313.762-.313t.762.313q.313.312.313.762t-.313.762q-.312.313-.762.313Z"/></svg>

<svg xmlns="http://www.w3.org/2000/svg" height="24" width="24"><path d="M17.85 19.625V21.775H2.1L21.825 2.05V8.55H19.4V7.525L7.3 19.625ZM19.775 17.925V10.425H21.825V17.925ZM20.8 21.825Q20.35 21.825 20.038 21.512Q19.725 21.2 19.725 20.75Q19.725 20.3 20.038 19.988Q20.35 19.675 20.8 19.675Q21.25 19.675 21.562 19.988Q21.875 20.3 21.875 20.75Q21.875 21.2 21.562 21.512Q21.25 21.825 20.8 21.825Z"/></svg>
